images/install/platform/windows.svg

<svg width="140" height="32" viewBox="0 0 140 32" fill="none" xmlns="http://www.w3.org/2000/svg">
<path d="M63.5847 6.54564L58.4558 24.7043H55.9617L52.2258 11.4338C52.0657 10.8684 51.9679 10.2519 51.9346 9.58506H51.8842C51.8338 10.2104 51.7234 10.818 51.5552 11.4086L47.7948 24.7043H45.3252L40.0066 6.54564H42.3488L46.2114 20.4749C46.3714 21.0573 46.473 21.6649 46.5152 22.2985H46.5789C46.6211 21.8509 46.7508 21.2433 46.9709 20.4749L50.9854 6.54564H53.0238L56.8731 20.5765C57.0079 21.0573 57.1087 21.6234 57.1769 22.2733H57.2273C57.2606 21.8346 57.3747 21.2522 57.5696 20.5261L61.2796 6.54638H63.5847V6.5455V6.54564Z" fill="#0078D6"/>
<path d="M66.4449 8.44472C66.0729 8.44472 65.7566 8.31802 65.495 8.06461C65.2334 7.8112 65.103 7.49111 65.103 7.1021C65.103 6.71458 65.2342 6.39078 65.495 6.13292C65.7573 5.87581 66.0729 5.74689 66.4449 5.74689C66.825 5.74689 67.1473 5.87655 67.4141 6.13292C67.6793 6.39078 67.8127 6.71384 67.8127 7.1021C67.8127 7.47407 67.6793 7.79045 67.4141 8.05202C67.1473 8.31431 66.825 8.44472 66.4449 8.44472V8.44472ZM67.4578 24.7044H65.3809V11.7375H67.4578V24.7044Z" fill="#0078D6"/>
<path d="M81.4144 24.7044H79.3375V17.3096C79.3375 14.5577 78.3328 13.1817 76.324 13.1817C75.286 13.1817 74.4264 13.5722 73.747 14.3531C73.0668 15.1341 72.7274 16.1196 72.7274 17.3096V24.7044H70.6505V11.7376H72.7274V13.89H72.7778C73.7566 12.2525 75.1748 11.4338 77.0324 11.4338C78.4506 11.4338 79.5354 11.8917 80.2867 12.8075C81.0388 13.7233 81.4137 15.0467 81.4137 16.7768V24.7044H81.4146H81.4144Z" fill="#0078D6"/>
<path d="M96.1878 24.7044H94.1109V22.5008H94.0605C93.098 24.1724 91.6116 25.0082 89.6029 25.0082C87.9735 25.0082 86.6716 24.428 85.6965 23.2669C84.7222 22.1066 84.2339 20.5254 84.2339 18.5248C84.2339 16.3804 84.774 14.6621 85.8551 13.3714C86.9354 12.0791 88.3744 11.4338 90.1734 11.4338C91.954 11.4338 93.2499 12.1347 94.0605 13.5359H94.1109V5.50757H96.1878V24.7044ZM94.1116 18.8419V16.9295C94.1116 15.8832 93.7649 14.997 93.0735 14.2702C92.3807 13.5448 91.5034 13.181 90.4394 13.181C89.1731 13.181 88.1765 13.6455 87.4511 14.574C86.725 15.5031 86.3619 16.7857 86.3619 18.4232C86.3619 19.9178 86.7102 21.0974 87.4067 21.9621C88.1024 22.8275 89.0375 23.2602 90.2112 23.2602C91.3679 23.2602 92.3066 22.8431 93.0291 22.0065C93.75 21.1715 94.1116 20.1156 94.1116 18.8419Z" fill="#0078D6"/>
<path d="M105.266 25.0081C103.349 25.0081 101.82 24.4028 100.676 23.1913C99.5317 21.9798 98.9604 20.3734 98.9604 18.3728C98.9604 16.1952 99.5554 14.4939 100.746 13.2699C101.935 12.0458 103.544 11.433 105.571 11.433C107.503 11.433 109.013 12.028 110.097 13.2187C111.182 14.408 111.724 16.0596 111.724 18.1698C111.724 20.2386 111.14 21.8946 109.97 23.1402C108.801 24.3857 107.233 25.0081 105.266 25.0081ZM105.418 13.1809C104.083 13.1809 103.028 13.6344 102.253 14.5421C101.475 15.4505 101.088 16.7012 101.088 18.2965C101.088 19.8333 101.48 21.044 102.266 21.9309C103.051 22.8164 104.102 23.2602 105.419 23.2602C106.761 23.2602 107.793 22.8253 108.515 21.9554C109.237 21.0862 109.598 19.8496 109.598 18.2454C109.598 16.6242 109.237 15.3757 108.515 14.4969C107.793 13.6203 106.761 13.1809 105.418 13.1809Z" fill="#0078D6"/>
<path d="M130.439 11.7376L126.552 24.7044H124.398L121.727 15.4224C121.626 15.0674 121.558 14.6673 121.525 14.2198H121.475C121.449 14.5236 121.36 14.9155 121.209 15.3979L118.309 24.7051H116.232L112.307 11.7383H114.484L117.168 21.4879C117.252 21.7835 117.311 22.1718 117.345 22.6526H117.447C117.472 22.2814 117.548 21.885 117.675 21.4627L120.663 11.7376H122.562L125.247 21.5131C125.33 21.8257 125.394 22.214 125.437 22.6778H125.539C125.555 22.3489 125.627 21.9606 125.754 21.5131L128.388 11.7376H130.439Z" fill="#0078D6"/>
<path d="M131.401 24.2353V22.0065C132.532 22.843 133.777 23.2602 135.136 23.2602C136.96 23.2602 137.871 22.6526 137.871 21.4367C137.871 21.0907 137.793 20.7973 137.638 20.5564C137.482 20.3156 137.27 20.103 137.005 19.917C136.739 19.7318 136.426 19.5643 136.068 19.4168C135.71 19.2694 135.322 19.1153 134.91 18.9545C134.335 18.7263 133.831 18.4966 133.397 18.2639C132.962 18.032 132.599 17.7704 132.307 17.4785C132.016 17.1873 131.797 16.8561 131.649 16.4841C131.501 16.1129 131.427 15.6787 131.427 15.18C131.427 14.5724 131.566 14.0338 131.844 13.5655C132.124 13.0965 132.495 12.7045 132.959 12.3874C133.423 12.071 133.953 11.8324 134.549 11.6716C135.144 11.5115 135.757 11.4315 136.39 11.4315C137.513 11.4315 138.517 11.6264 139.404 12.0139V14.116C138.449 13.4914 137.352 13.1787 136.111 13.1787C135.723 13.1787 135.373 13.2232 135.061 13.3121C134.748 13.4002 134.481 13.5255 134.257 13.6855C134.033 13.8463 133.86 14.0382 133.738 14.2612C133.615 14.4858 133.554 14.7325 133.554 15.0022C133.554 15.3401 133.615 15.6224 133.738 15.8513C133.86 16.0788 134.04 16.2811 134.276 16.4589C134.513 16.6353 134.8 16.7961 135.137 16.9391C135.476 17.0828 135.859 17.2392 136.291 17.4081C136.863 17.6282 137.379 17.8542 137.835 18.0853C138.291 18.3173 138.679 18.5796 139 18.8708C139.321 19.1627 139.567 19.4984 139.741 19.877C139.913 20.2578 140 20.7091 140 21.2322C140 21.8739 139.86 22.4311 139.576 22.9038C139.293 23.3773 138.916 23.7692 138.443 24.0812C137.97 24.3939 137.426 24.6258 136.809 24.7777C136.194 24.9296 135.548 25.0059 134.873 25.0059C133.537 25.0082 132.38 24.7503 131.401 24.2353H131.401Z" fill="#0078D6"/>
<path d="M13.7092 14.9815H30.918V0L13.7092 2.51111V14.9815Z" fill="#0078D6"/>
<path d="M12.4963 14.9814V2.68744L0 4.5102V14.9814H12.4963Z" fill="#0078D6"/>
<path d="M12.4963 16.1937H0V26.7983L12.4963 28.6418V16.1937Z" fill="#0078D6"/>
<path d="M13.7092 16.1937V28.8211L30.918 31.3596V16.1937H13.7092Z" fill="#0078D6"/>
</svg>

<svg xmlns="http://www.w3.org/2000/svg" fill="none" viewBox="0 0 140 32"><defs/><path fill="#0078D6" d="M63.585 6.546l-5.13 18.158h-2.493l-3.736-13.27a8.296 8.296 0 01-.291-1.849h-.05a9.396 9.396 0 01-.33 1.824l-3.76 13.295h-2.47L40.007 6.546h2.342l3.862 13.929c.16.582.262 1.19.304 1.823h.064c.042-.447.172-1.055.392-1.823l4.014-13.93h2.039l3.85 14.031c.134.481.235 1.047.303 1.697h.05c.034-.438.148-1.02.343-1.747l3.71-13.98h2.305zM66.445 8.445c-.372 0-.688-.127-.95-.38a1.282 1.282 0 01-.392-.963c0-.387.131-.711.392-.97.262-.256.578-.385.95-.385.38 0 .702.13.97.386.264.258.398.58.398.97 0 .371-.134.687-.399.949a1.33 1.33 0 01-.97.393zm1.013 16.26H65.38V11.737h2.077v12.966zM81.414 24.704h-2.076V17.31c0-2.752-1.005-4.128-3.014-4.128-1.038 0-1.898.39-2.577 1.171-.68.781-1.02 1.767-1.02 2.957v7.394H70.65V11.738h2.077v2.152h.05c.98-1.638 2.398-2.456 4.255-2.456 1.419 0 2.503.458 3.255 1.373.752.916 1.127 2.24 1.127 3.97v7.927zM96.188 24.704H94.11v-2.203h-.05c-.963 1.671-2.45 2.507-4.458 2.507-1.63 0-2.931-.58-3.906-1.741-.975-1.16-1.463-2.742-1.463-4.742 0-2.145.54-3.863 1.621-5.154 1.08-1.292 2.52-1.937 4.318-1.937 1.781 0 3.077.7 3.888 2.102h.05V5.508h2.077v19.196zm-2.076-5.862V16.93c0-1.047-.347-1.933-1.038-2.66-.693-.725-1.57-1.089-2.635-1.089-1.266 0-2.262.465-2.988 1.393-.726.93-1.09 2.212-1.09 3.85 0 1.494.35 2.673 1.046 3.538.695.866 1.63 1.298 2.804 1.298 1.157 0 2.096-.417 2.818-1.254.721-.834 1.083-1.89 1.083-3.164zM105.266 25.008c-1.917 0-3.446-.605-4.59-1.817-1.144-1.211-1.716-2.818-1.716-4.818 0-2.178.595-3.88 1.786-5.103 1.189-1.224 2.798-1.837 4.825-1.837 1.932 0 3.442.595 4.526 1.786 1.085 1.189 1.627 2.84 1.627 4.95 0 2.07-.584 3.726-1.754 4.971-1.169 1.246-2.737 1.868-4.704 1.868zm.152-11.827c-1.335 0-2.39.453-3.165 1.361-.778.909-1.165 2.16-1.165 3.755 0 1.536.392 2.747 1.178 3.634.785.885 1.836 1.33 3.153 1.33 1.342 0 2.374-.436 3.096-1.306.722-.869 1.083-2.105 1.083-3.71 0-1.62-.361-2.87-1.083-3.748-.722-.877-1.754-1.316-3.097-1.316zM130.439 11.738l-3.887 12.966h-2.154l-2.671-9.282a6.018 6.018 0 01-.202-1.202h-.05c-.026.304-.115.695-.266 1.178l-2.9 9.307h-2.077l-3.925-12.967h2.177l2.684 9.75c.084.296.143.684.177 1.165h.102a5.41 5.41 0 01.228-1.19l2.988-9.725h1.899l2.685 9.775c.083.313.147.701.19 1.165h.102c.016-.33.088-.717.215-1.165l2.634-9.775h2.051zM131.401 24.235v-2.229c1.131.837 2.376 1.254 3.735 1.254 1.824 0 2.735-.607 2.735-1.823 0-.346-.078-.64-.233-.88a2.345 2.345 0 00-.633-.64 4.915 4.915 0 00-.937-.5 68.325 68.325 0 00-1.158-.463 14.683 14.683 0 01-1.513-.69 4.564 4.564 0 01-1.09-.785 2.923 2.923 0 01-.658-.995c-.148-.371-.222-.805-.222-1.304 0-.608.139-1.146.417-1.614.28-.47.651-.862 1.115-1.179a5.203 5.203 0 011.59-.715 7.05 7.05 0 011.841-.24c1.123 0 2.127.194 3.014.582v2.102c-.955-.625-2.052-.937-3.293-.937a3.83 3.83 0 00-1.05.133c-.313.088-.58.213-.804.373-.224.161-.397.353-.519.576a1.516 1.516 0 00-.184.741c0 .338.061.62.184.85.122.227.302.43.538.607.237.176.524.337.861.48.339.144.722.3 1.154.47.572.22 1.088.445 1.544.676.456.232.844.495 1.165.786.321.292.567.627.741 1.006.172.38.259.832.259 1.355 0 .642-.14 1.2-.424 1.672-.283.473-.66.865-1.133 1.177a5.18 5.18 0 01-1.634.697 8.05 8.05 0 01-1.936.228c-1.336.002-2.493-.256-3.472-.77zM13.71 14.982h17.208V0L13.709 2.511v12.47zM12.496 14.981V2.687L0 4.51v10.471h12.496zM12.496 16.194H0v10.604l12.496 1.844V16.194zM13.71 16.194V28.82l17.208 2.539V16.194H13.709z"/></svg>
